X:1
T:Who Is He in Yonder Stall?
T:Benjamin Russell Hanby, 1866 
T:Who Is He in Yonder Stall?
T:Public Domain
T:Public Domain
C:Benjamin Russell Hanby, 1866
Z:Public Domain
%%score ( 1 2 ) ( 3 4 )
L:1/8
M:3/4
K:Ab
V:1 treble 
V:2 treble 
V:3 bass 
V:4 bass 
V:1
 [CE][CE] | [CE]3 [CE] E[CE] | [DF]4 [DF][DF] | [CE]3 [CE] [=DA][DA] | [EB]4 [CE][CE] | %5
w: 1.~Who is|He in yon- der|At Whose feet|the shep- herds fall?|Who is He|
w: 2.~Who is|He the peo- ple|For His words|of gen- tle- ness?|Who is He|
w: 3.~Who is|He that stands and|At the grave|where Laz- arus sleeps?|Who is He|
w: 4.~Lo! at|mid- night, who is|Prays in dark|Geth- sem- a- ne?|Who is He|
w: 5.~Who is|He that from the|Comes to heal|and help and save?|Who is He|
 [CE]3 [CE] E[CE] | [DF]4 [DF][DF] | [CE]3 [CE] [=DA][DA] | (E2 D2) ||"^Refrain" [CA][EB] | %10
w: in deep dis- tress,|ing in the|wil- der- ness? *|||
w: to Whom they bring|the sick and|sor- row- ing? *|||
w: the gath- ering throng|with loud tri-|umph- ant song? *|||
w: on yon- der tree|in grief and|a- go- ny? *|||
w: that from His throne|through all the|world a- lone? *|||
 [Ec]3 [Ec] [Fd][Ec] | [Ec]2 [EB]2 [EG][EA] | [EB]3 [EB] [Ec][EB] | [DB]2 [CA]2 [CA][CA] | %14
w: ||||
w: ||||
w: ||||
w: ||||
w: ||||
 [EA]3 [CA] [EA]E | [DF]4 [FA][FB] | [Ec]3 [Ec] [EB][DB] | [CA]4 |] %18
w: ||||
w: ||||
w: ||||
w: ||||
w: ||||
V:2
 x2 | x4 E x | x6 | x6 | x6 | x4 E x | x6 | x6 | B4 || x2 | x6 | x6 | x6 | x6 | x5 E | x6 | x6 | %17
w: |stall||||Fast-||||||||||||
w: |bless||||All||||||||||||
w: |weeps||||Greet||||||||||||
w: |He||||Dies||||||||||||
w: |grave||||Rules||||||||||||
 x4 |] %18
w: |
w: |
w: |
w: |
w: |
V:3
 [A,,A,][A,,A,] | [A,,A,]3 [A,,A,] [C,A,][A,,A,] | [D,A,]4 [D,A,][D,A,] | %3
w: ~ ~|~ ~ ~ ~|~ ~ ~|
 [E,A,]3 [E,A,] [F,A,][F,A,] | [E,G,]4 [A,,A,][A,,A,] | [A,,A,]3 [A,,A,] [C,A,][A,,A,] | %6
w: ~ ~ ~ ~|~ ~ ~|~ ~ ~ ~|
 [D,A,]4 [D,A,][D,A,] | [E,A,]3 [E,A,] [F,A,][F,A,] | (A,2 G,2) || [F,A,][E,G,] | %10
w: ~ ~ ~|~ ~ ~ ~|~ *|the Lord!|
 A,3 [A,,A,] [A,,A,][A,,A,] | [E,A,]2 [E,G,]2 [E,B,][E,A,] | [E,G,]3 [E,G,] [E,F,][E,G,] | %13
w: O won- drous sto-|’Tis the Lord! the|King of glo- ry!|
 [A,,G,]2 [A,,A,]2 [A,,E,][A,,E,] | [C,A,]3 [A,,A,] [C,A,][C,A,] | [D,A,]4 [D,A,][D,A,] | %16
w: At His feet we|hum- bly fall, Crown|Him! crown Him,|
 [E,A,]3 [E,A,] [E,A,][E,G,] | [A,,A,]4 |] %18
w: Lord of all! *||
V:4
 x2 | x6 | x6 | x6 | x6 | x6 | x6 | x6 | E,4 || x2 | A,3 x3 | x6 | x6 | x6 | x6 | x6 | x6 | x4 |] %18
w: ||||||||’Tis||ry!||||||||

